X:1
T:Hertzlieb, je mehr ich liebe
T:Melchior Franck
T:Source : Tricinia nova---Nürnberg---A.Wagenmann---1611. Editor : André Vierendeels (28/03/17).
T:Notes : Original clefs : G2, G2, F3 Editorial accidentals above the staff Text Middle German
T:Hertzlieb, je mehr ich liebe
T:©
T:©
T:©
C:Melchior Franck
Z:©
%%score [ 1 2 3 ]
L:1/8
Q:1/4=100
M:2/2
K:C
V:1 treble nm="Soprano 1" snm="S 1"
V:2 treble nm="Soprano 2" snm="S 2"
V:3 bass nm="Bass" snm="B"
V:1
"^1)" z4 g4 | d4 e2 d2- | d2 ^f2 g2 e2 | d2 e2 c2 d2 | c6 B2 | ^c2 d4 c2 |[M:2/4] d4 | %7
w: Hertz-|lieb, je mehr|_ ich lie- be|dich, je min- der|wilt mein|ach- * *|ten,|
w: Wie|kombts, Hertz- lieb,|_ dasz ü- ber|mich, du zür- nest|oh- ne|ach- * *|ten:|
[M:2/2] z4 g4 | d4 e2 d2- | d2 ^f2 g2 e2 | d2 e2 c2 d2 | c6 B2 | ^c2 d4 c2 |[M:2/4] d4 |: %14
w: und|wie sehr dein|_ lieb pei- nigt|mich, thust mich doch|nur ver-|ach- * *|ten:|
w: wie|offt hab ich|_ ge- bet- ten|dich, du wolst mich|ster- ben|las- * *|sen:|
[M:2/2] z2 e2 e3 e | f2 f2 e2 e2 | d2 d2 f3 f | c3 d e3 f | g4 d2 d2 | f3 f c3 d | e3 f g2 e2 | %21
w: Das a- ber|al- les irzt mich|nit, je grim- mer|du dich thust er-|zei- gen, je|mehr, will ich mich|zu dir nei- *|
w: So ich nicht|ha- ben könn dein|huld, o weh der|gros- sen pein und|schmer- zen, so|du zu fü- gest|mei- nem Hert- *|
 d2 c2 d4 | e4 z4 | d8 | c8 | B4 A4 | A4 !fermata!B4 :| %27
w: |gen,|mit|dienst|_ _|und bitt.|
w: |zen,|alls|umb|_ _|un- schuld.|
V:2
"^2)""^1)" c8 | B4 c2 B2- | B2 c2 d2 c2 | B2 c2 A4- | A2 G2 A2 B2 |"^-natural" G8 |[M:2/4] A4 | %7
w: Hertz-|lieb, je mehr|_ ich lie- be|dich, je min-|* der wilt mein|ach-|ten,|
w: Du|un- freund- li-|* ches Jung- fräu-|lein, von dir|_ werd ich nicht|las-|sen,|
[M:2/2] c8 | B4 c2 B2- | B2 c2 d2 c2 | B2 c2 A4- | A2 G2 A2 B2 | G8 |[M:2/4]"^-natural" A4 |: %14
w: und|wie sehr dein|_ lieb pei- nigt|mich, thust mich|_ doch nur ver-|ach-|ten:|
w: Ob|do schon in|_ dem Hert- zen|dein, mich fein-|* den thust und|has-|sen:|
[M:2/2] z2 c2 c3 c | A2 d2 d2 ^c2 | d4 z2 A2- | A2 c3 c G2- | GA B3 c d2- | d2 A2 A2 c2- | %20
w: Das a- ber|al- les irzt mich|nit, je|_ grim- mer du|_ dich thust er- zei-|* gen, je mehr|
w: Das Was- ser|soll eh nicht sein|nasz, das|_ feu- er sein|_ hitz von sich ge-|* ben, und in|
 cc G3 A B2- | B2 c2 B4 | c4 z4 | G4 E2 F2 | G2 A2 ^F4 | G8 | ^F4 !fermata!G4 :| %27
w: _ will ich mich zu|_ dir nei-|gen,|mit dienst _|_ _ _||und bitt.|
w: _ der lufft kein vo-|* gel schwe-|ben,|eh ich _|_ _ _||dich lasz.|
V:3
"^3)""^1)" z4 E,4 | G,4 C,2 G,2- | G,2 A,2 B,2 C2 | G,2 C,2 F,4- | F,2 E,2 F,2 G,2 | E,8 | %6
w: Hertz-|lieb, je mehr|_ ich lie- be|dich, je min-|* der wilt mein|ach-|
[M:2/4] D,4 |[M:2/2] z4 E,4 | G,4 C,2 G,2- | G,2 A,2 B,2 C2 | G,2 C,2 F,4- | F,2 E,2 F,2 G,2 | %12
w: ten,|und|wie sehr dein|_ lieb pei- nigt|mich, thust mich|_ doch nur ver-|
 E,8 |[M:2/4] D,4 |:[M:2/2] z2 A,2 A,3 A, | C2 F,2 G,2 A,2 | D,4 z2 D,2 | F,3 F, C,3 D, | %18
w: ach-|ten:|Das a- ber|al- les irzt mich|nit, je|grim- mer du dich|
 E,3 F, G,4 | D,2 D,2 F,3 F, | C,3 D, E,3 F, | G,8 | C,4 B,,4- | B,,4 C,4- | C,4 D,4- | D,4- D,4- | %26
w: thust er- zei-|gen, je mehr, will|ich mich zu dir|nei-|gen, mit|_ dienst|_ und|_ _|
 D,4 !fermata!G,4 :| %27
w: * bitt|

